img/like.svg

<svg width="33" height="36" viewBox="0 0 33 36" fill="none" xmlns="http://www.w3.org/2000/svg">
<path d="M15.913 23.5537C11.7555 21.2559 1.72036 13.4048 4.51563 9.76651C7.02476 2.46782 13.1257 4.83662 16.0972 7.08566C16.9261 6.3197 19.7842 4.97927 22.3647 4.97927C27.9559 6.89417 26.6656 7.27714 28.1709 11.4899C29.3752 14.8601 20.5007 20.9367 15.913 23.5537Z" fill="#174479" fill-opacity="0.2"/>
<path d="M16.1273 6.09727C12.2049 3.24031 8.58573 3.25183 5.35361 6.13759C4.58626 6.81592 3.97712 7.62332 3.5614 8.51312C3.14569 9.40293 2.93164 10.3575 2.93164 11.3216C2.93164 12.2857 3.14569 13.2403 3.5614 14.1301C3.97712 15.0199 4.58626 15.8273 5.35361 16.5056L5.38586 16.5344C10.4018 20.5664 12.9178 22.5824 14.1758 23.5875L15.2887 24.4803C15.4771 24.6529 15.7183 24.7721 15.9822 24.823C16.0406 24.8337 16.1 24.8394 16.1596 24.8403C16.2618 24.8399 16.3621 24.8151 16.4499 24.7683L16.5596 24.7222C17.0756 24.3742 17.5699 24.0011 18.0402 23.6048C19.1982 22.6861 21.6723 20.7248 26.8753 16.5517L26.9108 16.5229C27.6785 15.8447 28.288 15.0374 28.7039 14.1476C29.1199 13.2577 29.3341 12.3031 29.3341 11.3389C29.3341 10.3746 29.1199 9.42 28.7039 8.53017C28.288 7.64034 27.6785 6.833 26.9108 6.15487C22.9625 2.61823 18.9724 4.03231 16.1273 6.09727ZM25.5302 7.35871C26.121 7.88009 26.5897 8.50135 26.9087 9.1862C27.2277 9.87106 27.3907 10.6058 27.3882 11.3475C27.3868 12.0765 27.2236 12.798 26.908 13.4703C26.5924 14.1426 26.1307 14.7523 25.5495 15.2643C19.4595 20.143 17.0499 22.0582 16.1015 22.807C15.1596 22.0467 12.7501 20.1229 6.70194 15.2643C6.12052 14.7519 5.65865 14.1416 5.34306 13.4688C5.02747 12.796 4.8644 12.074 4.8633 11.3446C4.86097 10.6029 5.02405 9.86825 5.34305 9.18341C5.66204 8.49858 6.13056 7.87731 6.72129 7.35583C9.37602 4.98559 12.0759 5.14399 15.479 7.87423C15.6564 8.01591 15.8861 8.09424 16.1241 8.09424C16.3621 8.09424 16.5918 8.01591 16.7692 7.87423C20.1304 5.18431 22.9012 5.01727 25.5302 7.35871Z" fill="#174479" fill-opacity="0.2"/>
</svg>

<svg width="33" height="36" fill="none" xmlns="http://www.w3.org/2000/svg"><path d="M15.913 23.554C11.755 21.256 1.72 13.404 4.516 9.767c2.509-7.3 8.61-4.93 11.581-2.681.83-.766 3.687-2.107 6.268-2.107 5.59 1.915 4.3 2.298 5.806 6.51 1.204 3.371-7.67 9.448-12.258 12.065z" fill="#174479" fill-opacity=".2"/><path d="M16.127 6.097c-3.922-2.857-7.541-2.845-10.773.04A7.31 7.31 0 003.56 8.514a6.624 6.624 0 00-.63 2.809c0 .964.215 1.918.63 2.808a7.309 7.309 0 001.793 2.376l.032.028c5.016 4.032 7.532 6.048 8.79 7.053l1.113.893c.188.173.43.292.693.343.059.01.118.016.178.017a.624.624 0 00.29-.072l.11-.046c.516-.348 1.01-.72 1.48-1.117 1.158-.919 3.632-2.88 8.835-7.053l.036-.03a7.307 7.307 0 001.793-2.374c.416-.89.63-1.845.63-2.81a6.62 6.62 0 00-.63-2.808 7.306 7.306 0 00-1.793-2.375c-3.949-3.537-7.939-2.123-10.784-.058zM25.53 7.36a5.596 5.596 0 011.379 1.827 5.01 5.01 0 010 4.284 5.529 5.529 0 01-1.36 1.794c-6.09 4.879-8.5 6.794-9.447 7.543-.942-.76-3.352-2.684-9.4-7.543a5.531 5.531 0 01-1.359-1.795 5.012 5.012 0 010-4.286 5.597 5.597 0 011.378-1.827c2.655-2.37 5.355-2.212 8.758.518.177.142.407.22.645.22.238 0 .468-.078.645-.22 3.361-2.69 6.132-2.857 8.761-.515z" fill="#174479" fill-opacity=".2"/></svg>
